X:1
T:Valses Brillantes
T:Symphony No. 2
T:Carl Maria von Weber J. 51 Transcription by: Hazim Azlan 
%%score { ( 1 4 ) | ( 2 3 ) }
L:1/8
Q:1/8=68
M:4/4
K:F
V:1 treble nm="Piano" snm="Pno."
V:4 treble 
V:2 bass 
V:3 bass 
V:1
"^Adagio ma non troppo"!ff!!>(! F15/2 F/!>)! |!p! F2- F>C DEFG | A4{/^FGA} G>FG>A | %3
 F3/2G/4F/4 E/F/G/A/ C>D _E/=E/F/^F/ | G7/2 ^G/ A3/2B/4A/4 =GF | %5
!pp! EG/ z/ DG/ z/ C2 (6:4:6D/E/F/^F/G/^G/ | A4{/A=B} A>^GA>A | =B2 e2!>(! [_Ad]4!>)! | %8
!p! c3 A{/A} G>^FG>c | c4 F2 z2 | a4{/^fga} g>fg>a | %11
 f3/2g/4f/4 e/4f/4g/4a/4 (3g/4f/4e/4 (3g/4f/4d/4 c2- c/>d/ ^d/4e/4f/4^f/4 | g4 a3/2b/4a/4 gf | %13
 e[cg]/ z/ d[=Bg]/ z/ c3 ^c |[Q:1/8=72]!<(! d_e=ef[Q:1/8=68] (3^fg^g (3ab=b!<)! | %15
 c'3 =b _bg e/>c/ (3B/G/E/ | C4 [Bb]4 | [Aa]4 [_A_a]4 | [Gg]4{/a} g>^fg>c' | c'4 f2 z2 | %20
[K:bass] z2 G,3/2A,/4G,/4 F,E,D,C, | =B,,A,,[K:treble] a3/2=b/4a/4 gfed | %22
 c=B [gg']3/2[aa']/4[gg']/4 [^f^f'][=f=f'][ee'][dd'] | [dd']3 [^d^d'] [ee']2 z z/ c/ | %24
!>(! [cf]4 [ce]2!>)!!pp! z z/!ff! c/ |!>(! [c_a]4 [cg]2!>)!!mp! z z/ c/ | %26
 [Gg][^F^f]/ z/ GF/ z/ [Aa][Gg]/ z/ AG/ z/ | %27
 [Bb][Aa]/ z/[K:bass] B,A,/ z/[K:treble] [cc'][Bb]/ z/[K:bass] CB,/ z/ | %28
 [Aa][Bb]/ z/[K:bass] A,B,/ z/[K:treble] [_d_d']e/ z/[K:bass] _D,E,/ z/ | %29
 C,F,/ z/[K:treble] [cc'][ff']/ z/[K:bass] C,,F,,/ z/ z2 | !fermata!z8 | %31
[K:treble] B,2{/CB,A,} B,>C _D2{/_EDC} D>E | F4 _E4 | %33
 (3[_D_E][DE][DE] (3[DE][DE][DE]!<(! (3[_G_Ac][GAc][GAc] (3[GAc][GAc][GAc]!<)! | %34
!f! [ff']4{/d'_e'f'} [_ee']>[dd'][ee']>[ff'] | %35
 [_d_d']2{/_e'd'c'} (3[dd'][_ee'][ff'] [_A_a]2- (6:4:6[Aa]/[Bb]/[cc']/[dd']/[ee']/[ff']/ | %36
 [_g_g']4 [ff']3/2[gg']/4[ff']/4 [_e_e'][_d_d'] | %37
 [cc'][_e_e']/ z/ [Bb][ee']/ z/ [_A_a]>[=A=a] [Bb]/4[=B=b]/4[cc']/4[^c^c']/4(3[dd']/[_e_e']/[=e=e']/ | %38
 [ff']4{/f'} [ee']>[dd'][ee']>[gg'] | [ff']4- [ff']4 | %40
 [^f^f']3 [_e_e'] [dd'][cc']!<(! [=f=f'][^f^f']!<)! |!ff!!>(! [gg']3 [_e_e'] [cc']2!>)! z2 | %42
!8va(! (3z [_e'_e''][c'c''] (3[aa'][^f^f'][_ee'] (3[c'c''][aa'][ff']!8va)!!>(! (3[ee'][cc'][Aa]!>)! | %43
!p! (3[B_eb][Beb][Beb] (3[Beb][Beb][Beb] (3[Beb][Beb][Beb] (3[Beb][Beb][Be] | %44
 (3[_A=B][ABf][AB_e] (3[ABd][AB][AB] (3[FAB][FAB][FAB]!<(! (3[FAB][FAc][FAd]!<)! | %45
!ff! (3[F_Ad][ff'][_e_e'] (3[dd'][cc'][Bb] (3[cc'][Bb]!>(![=Aa] [_A_a]2!>)! | %46
!p! (3[A^fa]D^F (3Adf a4 | %47
!ff!!8va(!!8va(! (3[=B=b][dd'][ff'] (3[_a_a'][b=b'][d'd''] [f'f'']4!8va)!!8va)! | %48
!p! (3[FA][FA][FA] (3[FA][FA][FA] (3[FA][FA][FA] (3[FA][FA][FA] | %49
!<(! (3[FG][FG][FG] (3[FG][FG][FG]!<)!!>(! (3[FG][FG][FG] (3[FG][FG][FG]!>)! | %50
!>(! (3[FG][FG][FG] (3[FG][FG][FG]!>)!!p! (3[EG][EG][EG] (3[EG][EG][EG] |!p!{/A} a4{/^fga} g>fg>a | %52
 f4 ^f4 | (3g[db][e^c'] (3[ge'][fd'][db]{/a} g>^fg>=c' | f4 z4 | _E2 D>C _G2 F>E | %56
[Q:1/8=64]!>(! D4 _D4!>)! |!pp![Q:1/8=58] [B,D]4 [A,C]2 [^G,=B,]2 | %58
!ppp![Q:1/8=54] !fermata![A,C]8 |] %59
V:2
 [F,,F,]15/2 [F,,F,]/ | F,8 | [F,C]4 [C,G,B,]4 | A,2 F,2 C,2 A,,2 | [C,G,]4 [C,F,A,]4 | %5
 G,2 F,2 E,2 z2 | [F,C-]4 C2 =B,2 | [E,^G,]4 [D,=B,]4 | [F,C]4 [C,G,B,]4 | [E,C]4 [F,,F,]2 z2 | %10
!ped! (6:4:6A,C[I:staff -1]FAF[I:staff +1]C!ped-up!!ped! (6:4:6B,C[I:staff -1]EBE[I:staff +1]C!ped-up! | %11
!ped! (6:4:6A,C[I:staff -1]FAF[I:staff +1]C!ped-up!!ped! (6:4:6A,C[I:staff -1]FAF[I:staff +1]C!ped-up! | %12
!ped! (6:4:6B,C[I:staff -1]EBE[I:staff +1]C!ped-up!!ped! (6:4:6A,C[I:staff -1]FAF[I:staff +1]C!ped-up! | %13
!ped! (3G,CE!ped-up!!ped! (3G,=B,F!ped-up! [G,C]2 z2 | z8 | %15
!ped! (6:4:6C,G,B,EB,G,!ped-up!!ped! (6:4:6C,G,B,EB,G,!ped-up! | %16
!ped! (6:4:6C,G,B,EB,G,!ped-up!!ped! (6:4:6C,G,CECG,!ped-up! | %17
!ped! (6:4:6C,F,A,CA,F,!ped-up!!ped! (6:4:6C,F,_A,CA,F,!ped-up! | %18
!ped! (6:4:6B,,F,B,_DB,F,!ped-up!!ped! (6:4:6C,G,B,EB,G,!ped-up! | %19
!ped! (6:4:6C,E,B,CB,E!ped-up! [A,F]2 z2 | %20
!ped! [C,,C,] [G,CE][CE][CE] [G,CE][G,CE][G,CE][G,CE]!ped-up! | %21
!ped! F,, [A,CF][A,CF][A,CF] [A,CF][A,CF][A,CF][A,CF]!ped-up! | %22
!ped! G,, [G,=B,D][G,B,D][G,B,D] [A,C][B,D][CE][G,B,F]!ped-up! | %23
!ped! [C,,C,] [G,=B,F][G,B,F][G,B,F]!ped-up! [G,CE]2 z2 | x4 x2 z z/ C/ | [F,_A,]4 [E,C]2 z z/ z/ | %26
[K:treble]!ped! [G,C_E][G,CE][G,CE][G,CE] [B,D][B,D][B,D][B,D]!ped-up! | %27
!ped! [C_E_G][CEG][CEG][CEG] [_DF][DF][DF][DF]!ped-up! | %28
!ped! [_DEG][DEG][DEG][DEG] [DEG][DEG][DEG][DEG]!ped-up! | %29
!ped! [CA][CA][CFA][CFA] [CFA][CFA]/ z/ z2!ped-up! | !fermata!z8 |[K:bass] z4 B,2{/CB,A,} B,>C | %32
 z2 _A,2 G,2 B,2 | _A,4!ped! (3[A,C_E][A,CE][A,CE] (3[A,CE][A,CE][A,CE]!ped-up! | %34
!ped! (3x [F,_A,_D][F,A,D] (3[F,A,D][F,A,D][F,A,D]!ped-up!!ped! (3x [_E,A,C_E][E,A,CE] (3[E,A,CE][E,A,CE][E,A,CE]!ped-up! | %35
!ped! (3x [F,_A,_D][F,A,D] (3[F,A,D][F,A,D][F,A,D]!ped-up!!ped! (3x [F,A,D][F,A,D] (3[F,A,D][F,A,D][F,A,D]!ped-up! | %36
!ped! (3x [_E,_A,C_E][E,A,CE] (3[E,A,CE][E,A,CE][E,A,CE]!ped-up!!ped! (3x [F,A,_D][F,A,D] (3[F,A,D][F,A,D][F,A,D]!ped-up! | %37
!ped! (3x [_A,C_E][A,CE]!ped-up!!ped! (3x [G,_DE][G,DE]!ped-up!!ped! (3:2:2x [_E,A,C]2 z2!ped-up! | %38
!ped! (3x [F,_A,_D][F,A,D] (3[F,A,D][F,A,D][F,A,D]!ped-up!!ped! (3x [E,G,B,C][E,G,B,C] (3[E,G,B,C][E,G,B,C][E,G,B,C]!ped-up! | %39
!ped! (3x [C,F,_A,][C,F,A,] (3[C,F,A,][C,F,A,][_A,,C,F,] (3[A,,C,F,][A,,C,][A,,C,F,] (3[A,,C,F,][A,,C,F,][A,,C,F,]!ped-up! | %40
!ped! (3x [_A,C_E^F][A,CEF] (3[A,CEF][A,CEF][A,CEF]!ped-up!!ped! (3x [A,CEF][A,CEF] (3[A,CEF][A,CEF][A,CEF]!ped-up! | %41
!ped! (3x [G,C_EG][G,CEG] (3[G,CEG][G,CEG][G,CEG]!ped-up!!ped! (3x [G,CEG][G,CEG]!ped-up!!ped! (3x [G,CEG][G,CEG]!ped-up! | %42
!ped! (3x [^F,A,C_E][F,A,CE] (3[F,A,CE][F,A,CE][F,A,CE] (3[F,A,CE][F,A,CE][F,A,CE] (3[F,A,CE][F,A,CE][F,A,CE]!ped-up! | %43
!ped! (3[G,B,_E]B,,_E, (3G,B,E G4!ped-up! |!ped! (3FF_E (3DFE (3DF,_E, (3D,C,=B,,!ped-up! | %45
!ped! (3x [B,,D,F,_A,][B,,D,F,A,] (3[B,,D,F,A,][B,,D,F,A,][B,,D,F,A,] (3[B,,D,F,A,][B,,D,F,A,][B,,D,F,A,] (3D,_E,F,!ped-up! | %46
!ped! (3[A,,^F,]D,F, (3A,D^F!ped-up!!ped! (3x [F,A,D][F,A,D] (3[F,A,D][F,A,D][F,A,D]!ped-up! | %47
!ped! (3x [F,_A,D][F,A,D] (3[F,A,D][F,A,D][F,A,D]!ped-up!!ped! (3x [F,A,D][F,A,D] (3[F,A,D][F,A,D][F,A,D]!ped-up! | %48
!ped! (3C,,F,,A,, (3C,F,A, C4!ped-up! |!ped! [C,,C,]4!mf! [_D,,_D,]3 [C,,C,]!ped-up! | %50
!ped! [=B,,,=B,,]4 C2 B,2!ped-up! | %51
!ped! (6:4:6A,C[I:staff -1]FAF[I:staff +1]C!ped-up!!ped! (6:4:6A,^C[I:staff -1]EBE[I:staff +1]C!ped-up! | %52
!ped! (6:4:6F,A,[I:staff -1]DFD[I:staff +1]A,!ped-up!!ped! (6:4:6^F,A,[I:staff -1]D^FD[I:staff +1]A,!ped-up! | %53
!ped! (6:4:6B,D[I:staff -1]FBF[I:staff +1]D!ped-up!!ped! (6:4:6B,C[I:staff -1]EBE[I:staff +1]C!ped-up! | %54
 (3.F,.F,.F, (3.F,.F,.F, (3.F,.F,.F, (3.F,.F,.F, | %55
 (3.F,.F,.F, (3.F,.F,.F, (3.F,.F,.F, (3.F,.F,.F, | %56
 (3.F,.F,.F, (3.F,.F,.F, (3.F,.F,.F, (3.F,.F,.F, | %57
 (3.F,,!>(!.F,,.F,, (3.F,,.F,,.F,, (3.F,,.F,,.F,, (3.F,,.F,,.F,,!>)! | %58
 (3F,,F,,F,, (3F,,F,,F,, !fermata!F,,4 |] %59
V:3
 x8 | F,,4 C,4 | x8 | [F,,C,]4 F,,4 | x8 | C,2 D,2 C,2 z2 | x4 [E,^G,]4 | x8 | x8 | x8 | %10
 F, z z2 E, z z2 | F, z z2 F, z z2 | E, z z2 F, z z2 | G,2 D,2 x4 | x8 | x8 | x8 | x8 | x8 | x8 | %20
 x8 | x8 | x8 | x8 | x8 | x8 |[K:treble] x8 | x8 | x8 | x8 | x8 |[K:bass] x8 | x8 | x8 | %34
 [_D,,_D,]4 [_A,,,_A,,]4 | [_D,,_D,]4 [D,,D,]4 | [_A,,,_A,,]4 [_D,,_D,]4 | %37
 [_A,,,_A,,]2 [_E,,_E,]2 [A,,,A,,]2 x2 | [_D,,_D,]4 [G,,G,]4 | [F,,F,]4 x4 | %40
 [_A,,,_A,,]4 [A,,_A,]4 | [G,,,G,,]4 [C,,C,]2 [_E,,_E,]2 | [^F,,,^F,,]4 x4 | x8 | F,2- F,2 x4 | %45
 [B,,,B,,]4 x4 | x4 [D,,D,]4 | [=B,,,=B,,]4 [D,,D,]4 | x8 | x8 | x4 C,4 | F,4 E,4 | D,4 D,4 | %53
 F, z z2 E, z z2 | F,,8 | F,,8 | F,,8 | F,,,8 | F,,,4 F,,,4 |] %59
V:4
 x8 | x8 | F4 E4 | C4 A,4 | C4 F4 | C2 =B,2 G,2 x2 | x8 | E4 F4 | [FA]3 F E4 | E4 F2 z2 | x8 | x8 | %12
 x8 | x8 | x8 | x8 | x8 | x8 | x8 | x8 |[K:bass] x8 | x2[K:treble] x6 | x8 | x8 | A4 G2 x2 | %25
 _A4 G2 x2 | x8 | x2[K:bass] x2[K:treble] x2[K:bass] x2 | x2[K:bass] x2[K:treble] x2[K:bass] x2 | %29
 x2[K:treble] x2[K:bass] x4 | x8 |[K:treble] x8 | _D4 D4 | x8 | x8 | x8 | x8 | x8 | x8 | %39
 (3z _Ac (3CF_A, (3CF,A, (3CFA | x8 | x8 |!8va(! x6!8va)! x2 | x8 | x8 | x8 | x8 | %47
!8va(!!8va(! x8!8va)!!8va)! | x8 | x8 | x8 | x8 | x8 | x8 | A4 x4 | x8 | B,4 B,4 | %57
[I:staff +1] F,8 | F,8 |] %59

